packages/dnb-ui-lib/assets/icons/hide_medium.svg

<svg width="25" height="24" viewBox="0 0 25 24" fill="none" xmlns="http://www.w3.org/2000/svg">
<path d="M12 5.251L11.9874 6.00089C11.9958 6.00104 12.0042 6.00104 12.0127 6.00089L12 5.251ZM1.17901 10.885L0.623885 10.3807L0.621748 10.383L1.17901 10.885ZM1.17901 13.111L0.621743 13.613L0.623735 13.6152L1.17901 13.111ZM12 18.748L12.0126 17.9981C12.0042 17.998 11.9958 17.998 11.9874 17.9981L12 18.748ZM22.824 13.111L23.3791 13.6154L23.3813 13.613L22.824 13.111ZM22.824 10.885L23.3813 10.383L23.3788 10.3804L22.824 10.885ZM14.3786 6.29605C14.7799 6.39882 15.1885 6.15684 15.2913 5.75558C15.394 5.35432 15.1521 4.94572 14.7508 4.84295L14.3786 6.29605ZM20.1663 7.5043C19.8312 7.2608 19.3622 7.33504 19.1187 7.67013C18.8752 8.00521 18.9494 8.47425 19.2845 8.71775L20.1663 7.5043ZM9.58801 17.6965C9.18698 17.5928 8.77783 17.8339 8.67415 18.2349C8.57048 18.6359 8.81153 19.0451 9.21255 19.1487L9.58801 17.6965ZM3.83206 16.4935C4.16685 16.7375 4.63597 16.6638 4.87989 16.329C5.1238 15.9942 5.05013 15.5251 4.71535 15.2812L3.83206 16.4935ZM15.1175 14.0831L14.494 13.6663V13.6663L15.1175 14.0831ZM13.4344 15.4638L13.1475 14.7709V14.7709L13.4344 15.4638ZM8.53556 10.5637L7.84267 10.2766H7.84267L8.53556 10.5637ZM9.91673 8.88092L9.50007 8.2573L9.91673 8.88092ZM11.9059 9.00048C12.3199 8.98748 12.645 8.64133 12.632 8.22732C12.619 7.81331 12.2728 7.48822 11.8588 7.50121L11.9059 9.00048ZM7.50216 11.8599C7.48936 12.2739 7.8146 12.62 8.22862 12.6328C8.64263 12.6456 8.98864 12.3203 9.00144 11.9063L7.50216 11.8599ZM16.4978 12.1402C16.5108 11.7262 16.1857 11.38 15.7717 11.367C15.3577 11.354 15.0115 11.6791 14.9985 12.0931L16.4978 12.1402ZM12.0939 14.9975C11.6799 15.0105 11.3548 15.3566 11.3677 15.7706C11.3807 16.1846 11.7268 16.5098 12.1408 16.4968L12.0939 14.9975ZM22.5303 2.53033C22.8232 2.23744 22.8232 1.76256 22.5303 1.46967C22.2374 1.17678 21.7626 1.17678 21.4697 1.46967L22.5303 2.53033ZM1.46968 21.4697C1.17679 21.7626 1.17679 22.2374 1.46968 22.5303C1.76258 22.8232 2.23745 22.8232 2.53034 22.5303L1.46968 21.4697ZM12.0127 4.50111C7.6641 4.42775 3.30354 7.43112 0.62389 10.3807L1.73413 11.3893C4.29648 8.56888 8.27393 5.93825 11.9874 6.00089L12.0127 4.50111ZM0.621748 10.383C0.222556 10.8262 0.00164795 11.4015 0.00164795 11.998H1.50165C1.50165 11.7723 1.58523 11.5546 1.73627 11.387L0.621748 10.383ZM0.00164795 11.998C0.00164795 12.5945 0.222556 13.1698 0.621748 13.613L1.73627 12.609C1.58523 12.4414 1.50165 12.2237 1.50165 11.998H0.00164795ZM11.9874 19.4979C16.408 19.5723 20.7578 16.5002 23.3791 13.6154L22.2689 12.6066C19.7582 15.3698 15.792 18.0617 12.0126 17.9981L11.9874 19.4979ZM23.3813 13.613C23.7805 13.1698 24.0014 12.5945 24.0014 11.998H22.5014C22.5014 12.2237 22.4178 12.4414 22.2667 12.609L23.3813 13.613ZM24.0014 11.998C24.0014 11.4015 23.7805 10.8262 23.3813 10.383L22.2667 11.387C22.4178 11.5546 22.5014 11.7723 22.5014 11.998H24.0014ZM14.7508 4.84295C13.8446 4.61085 12.9172 4.48542 11.9874 4.50111L12.0127 6.00089C12.7909 5.98776 13.584 6.09253 14.3786 6.29605L14.7508 4.84295ZM23.3788 10.3804C22.4655 9.37613 21.3735 8.38153 20.1663 7.5043L19.2845 8.71775C20.4061 9.53276 21.4221 10.4584 22.2692 11.3896L23.3788 10.3804ZM9.21255 19.1487C10.1276 19.3853 11.0671 19.5138 12.0126 19.4979L11.9874 17.9981C11.1944 18.0115 10.3903 17.9039 9.58801 17.6965L9.21255 19.1487ZM0.623735 13.6152C1.52624 14.6092 2.61708 15.6083 3.83206 16.4935L4.71535 15.2812C3.58648 14.4587 2.57125 13.5287 1.73429 12.6068L0.623735 13.6152ZM14.494 13.6663C14.1643 14.1595 13.6957 14.5439 13.1475 14.7709L13.7213 16.1568C14.5435 15.8164 15.2464 15.2398 15.741 14.4999L14.494 13.6663ZM9.22845 10.8508C9.45553 10.3026 9.84005 9.83414 10.3334 9.50454L9.50007 8.2573C8.76007 8.75172 8.1833 9.45445 7.84267 10.2766L9.22845 10.8508ZM10.3334 9.50454C10.8006 9.19238 11.3455 9.01806 11.9059 9.00048L11.8588 7.50121C11.0183 7.52759 10.2009 7.78907 9.50007 8.2573L10.3334 9.50454ZM9.00144 11.9063C9.0126 11.5455 9.08885 11.1877 9.22845 10.8508L7.84267 10.2766C7.63327 10.7821 7.5189 11.3187 7.50216 11.8599L9.00144 11.9063ZM14.9985 12.0931C14.9809 12.6538 14.8065 13.1989 14.494 13.6663L15.741 14.4999C16.2097 13.7989 16.4714 12.9811 16.4978 12.1402L14.9985 12.0931ZM13.1475 14.7709C12.8111 14.9101 12.4541 14.9863 12.0939 14.9975L12.1408 16.4968C12.6811 16.4799 13.2167 16.3657 13.7213 16.1568L13.1475 14.7709ZM21.4697 1.46967L1.46968 21.4697L2.53034 22.5303L22.5303 2.53033L21.4697 1.46967Z" fill="black"/>
</svg>

<svg width="24" height="24" viewBox="0 0 25 24" fill="none" xmlns="http://www.w3.org/2000/svg"><path d="M12 5.251l-.013.75h.026L12 5.25zM1.179 10.885l-.555-.504-.002.002.557.502zm0 2.226l-.557.502.002.002.555-.504zM12 18.748l.013-.75h-.026l.013.75zm10.824-5.637l.555.504.002-.002-.557-.502zm0-2.226l.557-.502-.002-.003-.555.505zm-8.445-4.589a.75.75 0 00.372-1.453l-.372 1.453zm5.787 1.208a.75.75 0 10-.881 1.214l.881-1.214zM9.588 17.696a.75.75 0 00-.375 1.453l.375-1.453zm-5.756-1.203a.75.75 0 10.883-1.212l-.883 1.213zm11.285-2.41l-.623-.417.623.417zm-1.683 1.38l-.286-.692.286.693zm-4.898-4.9l-.693-.286.693.287zm1.38-1.682L9.5 8.257l.417.624zm1.99.12a.75.75 0 10-.047-1.5l.047 1.5zM7.502 11.86a.75.75 0 001.5.046l-1.5-.046zm8.996.28a.75.75 0 00-1.5-.047l1.5.047zm-4.404 2.857a.75.75 0 00.047 1.5l-.047-1.5zM22.53 2.53a.75.75 0 00-1.06-1.06l1.06 1.06zM1.47 21.47a.75.75 0 101.06 1.06l-1.06-1.06zM12.013 4.5c-4.349-.073-8.71 2.93-11.39 5.88l1.111 1.008C4.296 8.568 8.274 5.938 11.987 6l.026-1.5zM.622 10.383a2.41 2.41 0 00-.62 1.615h1.5c0-.226.083-.443.234-.611L.622 10.383zm-.62 1.615c0 .597.22 1.172.62 1.615l1.114-1.004a.913.913 0 01-.234-.611h-1.5zm11.985 7.5c4.421.074 8.77-2.998 11.392-5.883l-1.11-1.008c-2.51 2.763-6.477 5.455-10.256 5.391l-.026 1.5zm11.394-5.885c.4-.443.62-1.018.62-1.615h-1.5a.912.912 0 01-.234.611l1.114 1.004zm.62-1.615a2.41 2.41 0 00-.62-1.615l-1.114 1.004a.912.912 0 01.234.611h1.5zm-9.25-7.155a10.434 10.434 0 00-2.764-.342l.026 1.5a8.936 8.936 0 012.366.295l.372-1.453zm8.628 5.537a21.363 21.363 0 00-3.213-2.876l-.881 1.214a19.876 19.876 0 012.984 2.672l1.11-1.01zM9.213 19.15a10.5 10.5 0 002.8.349l-.026-1.5a8.985 8.985 0 01-2.399-.302l-.375 1.453zm-8.59-5.534a21.417 21.417 0 003.21 2.879l.882-1.213a19.915 19.915 0 01-2.98-2.674L.623 13.615zm13.871.051a3 3 0 01-1.346 1.105l.573 1.386a4.5 4.5 0 002.02-1.657l-1.247-.834zm-5.266-2.815a3 3 0 011.105-1.346L9.5 8.257a4.5 4.5 0 00-1.657 2.02l1.385.574zm1.105-1.346A3 3 0 0111.906 9l-.047-1.499a4.5 4.5 0 00-2.359.756l.833 1.248zm-1.332 2.401a3 3 0 01.227-1.055l-1.385-.574a4.5 4.5 0 00-.34 1.583L9 11.906zm5.998.187a3 3 0 01-.505 1.573l1.247.834a4.5 4.5 0 00.757-2.36l-1.5-.047zm-1.851 2.678a3 3 0 01-1.054.226l.047 1.5a4.5 4.5 0 001.58-.34l-.573-1.386zM21.47 1.47l-20 20 1.06 1.06 20-20-1.06-1.06z" fill="#000"/></svg>
